icons/1_Primary/OnlyFans.svg

<svg width="1024" height="1024" viewBox="0 0 1024 1024" fill="none" xmlns="http://www.w3.org/2000/svg">
<g clip-path="url(#clip0_2_3024)">
<path d="M512 1024C794.77 1024 1024 794.77 1024 512C1024 229.23 794.77 0 512 0C229.23 0 0 229.23 0 512C0 794.77 229.23 1024 512 1024Z" fill="#9ABEFF"/>
<path d="M480.6 567.77L433.13 718.67L432.27 721.41C326.28 716 242 628.34 242 521C242 410.17 331.84 320.33 442.67 320.33C487.423 320.262 530.902 335.222 566.14 362.81C541 393.45 521.68 440.12 500.6 504.64C497.556 493.86 491.564 484.142 483.299 476.582C475.033 469.021 464.822 463.916 453.814 461.841C442.806 459.767 431.437 460.805 420.987 464.839C410.536 468.873 401.419 475.743 394.66 484.676C387.9 493.609 383.768 504.25 382.726 515.404C381.685 526.557 383.776 537.78 388.765 547.81C393.754 557.84 401.442 566.278 410.965 572.177C420.488 578.076 431.468 581.201 442.67 581.2H442.83C456.589 581.197 469.928 576.455 480.6 567.77ZM701.93 320.92C698.03 321.06 694.223 321.23 690.51 321.43C685.843 321.683 681.347 321.997 677.02 322.37C670.02 322.97 663.43 323.74 657.13 324.71L654.78 325.09C652.447 325.477 650.157 325.893 647.91 326.34L645.68 326.8C644.2 327.113 642.74 327.447 641.3 327.8L639.15 328.33C637.01 328.863 634.91 329.437 632.85 330.05C631.477 330.457 630.12 330.88 628.78 331.32C624.18 332.821 619.669 334.584 615.27 336.6C612.797 337.733 610.383 338.95 608.03 340.25C605.677 341.55 603.367 342.933 601.1 344.4L599.41 345.52C598.29 346.273 597.183 347.053 596.09 347.86C594.997 348.667 593.913 349.493 592.84 350.34L591.24 351.63C589.647 352.963 588.077 354.327 586.53 355.72C584.463 357.613 582.433 359.613 580.44 361.72C578.447 363.827 576.483 366.03 574.55 368.33L573.84 369.2C572.633 370.667 571.437 372.173 570.25 373.72C569.303 374.96 568.363 376.23 567.43 377.53C566.03 379.477 564.643 381.477 563.27 383.53C561.437 386.303 559.623 389.2 557.83 392.22C542.57 417.89 528.46 452.66 512.83 499.71C509.603 509.397 506.3 519.613 502.92 530.36L500.35 538.53C500.25 538.85 500.15 539.16 500.05 539.48L442.67 721.67C444.25 721.67 445.83 721.67 447.41 721.61H448.46C449.793 721.57 451.11 721.52 452.41 721.46H453.29C454.83 721.38 456.367 721.283 457.9 721.17L458.83 721.09C460.003 720.997 461.173 720.893 462.34 720.78L463.04 720.71L464.12 720.6L466.75 720.3L468.67 720.07L470.18 719.86L471.95 719.61L472.32 719.56L473.73 719.34L475.5 719.06L476.23 718.94L477.23 718.77L479.6 718.35L480.73 718.13L483.2 717.65L484.2 717.43L486.74 716.88L487.66 716.67L490.3 716.05L490.94 715.89L493.83 715.16L494.3 715.03L497.3 714.2L497.69 714.09C498.73 713.797 499.763 713.493 500.79 713.18H500.9C502.02 712.84 503.137 712.507 504.25 712.18C553.038 696.427 593.928 662.566 618.5 617.57L618.58 617.41C619.733 615.297 620.85 613.157 621.93 610.99L622.12 610.61C622.607 609.63 623.087 608.63 623.56 607.61C624.627 605.363 625.657 603.093 626.65 600.8H626.87C675.43 597.22 714.93 578.11 742.34 546.51C745.153 543.263 747.84 539.887 750.4 536.38C754.278 531.005 757.818 525.394 761 519.58C762.62 516.667 764.16 513.683 765.62 510.63C766.593 508.597 767.533 506.533 768.44 504.44C770.253 500.253 771.92 495.947 773.44 491.52C775.776 484.737 777.745 477.834 779.34 470.84H779.02L778.68 470.92L778.22 471.02H778.05L777.61 471.12H777.41L776.69 471.27L775.88 471.44L775.59 471.5L774.9 471.64L774.59 471.7L773.59 471.9H773.46L772.36 472.11L771.94 472.19L771.06 472.36L770.59 472.45L769.28 472.69H769.14L767.73 472.94L767.23 473.02L766.11 473.21L765.56 473.3L763.98 473.55H763.8L762.13 473.81L761.54 473.9L760.23 474.09L759.59 474.18L757.74 474.44H757.58L755.65 474.69L754.98 474.78L753.5 474.96L752.8 475.04L750.71 475.28H750.58L748.41 475.51L747.71 475.58L746.03 475.75L745.31 475.82L743.03 476.03H742.84L740.51 476.22L739.75 476.28L737.95 476.41L737.16 476.46L734.69 476.61H734.55L732.03 476.74H731.24L729.3 476.82H728.49L725.81 476.9H719.41C717.557 476.9 715.687 476.877 713.8 476.83H712.95L710.85 476.76H710C708.087 476.68 706.163 476.577 704.23 476.45L703.39 476.39L701.21 476.22L700.37 476.15C698.423 475.983 696.47 475.787 694.51 475.56L693.66 475.46L691.46 475.18L690.61 475.07C688.65 474.803 686.69 474.5 684.73 474.16L683.87 474.01L681.68 473.61L680.83 473.45C679.83 473.26 678.83 473.06 677.9 472.85C676.9 472.64 675.96 472.42 675 472.19L674.15 471.98L672 471.44L671.14 471.22C670.14 470.97 669.22 470.7 668.27 470.43C669.843 470.123 671.41 469.81 672.97 469.49C679.19 468.197 685.243 466.76 691.13 465.18C692.603 464.787 694.063 464.383 695.51 463.97C698.41 463.15 701.27 462.293 704.09 461.4C709.723 459.62 715.193 457.703 720.5 455.65C723.167 454.623 725.777 453.567 728.33 452.48C737.057 448.794 745.555 444.59 753.78 439.89C756.06 438.557 758.3 437.223 760.5 435.89C774.242 427.411 786.881 417.264 798.13 405.68C799.797 403.96 801.42 402.21 803 400.43C806.16 396.883 809.16 393.237 812 389.49C813.42 387.617 814.797 385.723 816.13 383.81C817.463 381.897 818.76 379.957 820.02 377.99C821.9 375.043 823.69 372.043 825.39 368.99C825.957 367.977 826.513 366.957 827.06 365.93C828.153 363.877 829.207 361.803 830.22 359.71C831.74 356.57 833.167 353.383 834.5 350.15C835.393 347.997 836.243 345.823 837.05 343.63C839.896 335.887 842.234 327.967 844.05 319.92H743.23C728.33 320.33 714.61 320.47 701.93 320.92Z" fill="white"/>
</g>
<defs>
<clipPath id="clip0_2_3024">
<rect width="1024" height="1024" fill="white"/>
</clipPath>
</defs>
</svg>

<svg xmlns="http://www.w3.org/2000/svg" viewBox="0 0 1024 1024">
   <circle cx="512" cy="512" r="512" style="fill:#00aff0"/>
   <path d="m480.6 567.77-47.47 150.9-.86 2.74C326.28 716 242 628.34 242 521c0-110.83 89.84-200.67 200.67-200.67a199.8 199.8 0 0 1 123.47 42.48c-25.14 30.64-44.46 77.31-65.54 141.83a60.2 60.2 0 1 0-57.93 76.56h.16a59.86 59.86 0 0 0 37.77-13.43Zm221.33-246.85q-5.85.21-11.42.51-7 .38-13.49.94c-7 .6-13.59 1.37-19.89 2.34l-2.35.38q-3.5.58-6.87 1.25l-2.23.46q-2.22.47-4.38 1l-2.15.53q-3.21.8-6.3 1.72-2.06.61-4.07 1.27a126.79 126.79 0 0 0-13.51 5.28q-3.71 1.7-7.24 3.65t-6.93 4.15l-1.69 1.12q-1.68 1.13-3.32 2.34t-3.25 2.48l-1.6 1.29q-2.39 2-4.71 4.09-3.1 2.84-6.09 6t-5.89 6.61l-.71.87q-1.81 2.2-3.59 4.52-1.42 1.86-2.82 3.81-2.1 2.92-4.16 6-2.75 4.16-5.44 8.69c-15.26 25.67-29.37 60.44-45 107.49q-4.84 14.53-9.91 30.65l-2.57 8.17c-.1.32-.2.63-.3.95l-57.38 182.19c1.58 0 3.16 0 4.74-.06h1.05q2-.06 3.95-.15h.88q2.31-.12 4.61-.29l.93-.08q1.76-.14 3.51-.31l.7-.07 1.08-.11 2.63-.3 1.92-.23 1.51-.21 1.77-.25.37-.05 1.41-.22 1.77-.28.73-.12 1-.17 2.37-.42 1.13-.22 2.47-.48 1-.22 2.54-.55.92-.21 2.64-.62.64-.16 2.89-.73.47-.13 3-.83.39-.11q1.56-.44 3.1-.91h.11q1.68-.51 3.35-1a200.3 200.3 0 0 0 114.25-94.61l.08-.16q1.73-3.17 3.35-6.42l.19-.38q.73-1.47 1.44-3 1.6-3.37 3.09-6.81h.22c48.56-3.58 88.06-22.69 115.47-54.29q4.22-4.87 8.06-10.13a160.16 160.16 0 0 0 10.6-16.8q2.43-4.37 4.62-8.95 1.46-3.05 2.82-6.19 2.72-6.28 5-12.92a200.19 200.19 0 0 0 5.9-20.68h-.32l-.34.08-.46.1h-.17l-.44.1h-.2l-.72.15-.81.17-.29.06-.69.14-.31.06-1 .2h-.13l-1.1.21-.42.08-.88.17-.47.09-1.31.24h-.14l-1.41.25-.5.08-1.12.19-.55.09-1.58.25h-.18l-1.67.26-.59.09-1.31.19-.64.09-1.85.26h-.16l-1.93.25-.67.09-1.48.18-.7.08-2.09.24h-.13l-2.17.23-.7.07-1.68.17-.72.07-2.28.21h-.19l-2.33.19-.76.06-1.8.13-.79.05-2.47.15h-.14l-2.52.13h-.79l-1.94.08h-.81l-2.68.08h-6.4q-2.78 0-5.61-.07h-.85l-2.1-.07H710q-2.87-.12-5.77-.31l-.84-.06-2.18-.17-.84-.07q-2.92-.25-5.86-.59l-.85-.1-2.2-.28-.85-.11q-2.94-.4-5.88-.91l-.86-.15-2.19-.4-.85-.16c-1-.19-2-.39-2.93-.6-1-.21-1.94-.43-2.9-.66l-.85-.21-2.15-.54-.86-.22c-1-.25-1.92-.52-2.87-.79q2.36-.46 4.7-.94 9.33-1.94 18.16-4.31 2.21-.59 4.38-1.21 4.35-1.23 8.58-2.57 8.45-2.67 16.41-5.75 4-1.54 7.83-3.17a237.81 237.81 0 0 0 25.45-12.59q3.42-2 6.72-4a195.64 195.64 0 0 0 37.63-30.21q2.5-2.58 4.87-5.25 4.74-5.32 9-10.94 2.13-2.81 4.13-5.68t3.89-5.82q2.82-4.42 5.37-9 .85-1.52 1.67-3.06 1.64-3.08 3.16-6.22 2.28-4.71 4.28-9.56 1.34-3.23 2.55-6.52a189.83 189.83 0 0 0 7-23.71H743.23c-14.9.41-28.62.55-41.3 1Z" style="fill:#fff"/>
</svg>
